lib/svgs/review.svg

<svg xmlns="http://www.w3.org/2000/svg" viewBox="0 0 20 20">
    <path fill="#000" fill-rule="evenodd" d="M2.6,9.409 C2.932,9.409 3.2,9.677 3.201,10.009 C3.205,13.755 6.255,16.801 10,16.801 L10.009,16.801 C13.759,16.795 16.805,13.74 16.8,9.991 C16.798,8.175 16.089,6.468 14.803,5.185 C13.519,3.905 11.814,3.2 10.001,3.2 L9.992,3.2 C7.976,3.202 6.121,4.078 4.828,5.603 L7.096,5.599 L7.097,5.599 C7.428,5.599 7.696,5.867 7.697,6.199 C7.697,6.53 7.429,6.799 7.098,6.8 L3.648,6.804 L3.647,6.804 C3.316,6.804 3.047,6.536 3.047,6.205 L3.042,2.756 C3.042,2.424 3.31,2.155 3.642,2.155 C3.974,2.155 4.242,2.423 4.243,2.754 L4.245,4.445 C5.743,2.884 7.788,2.002 9.99,2 L10.001,2 C12.134,2 14.14,2.829 15.65,4.336 C17.163,5.845 17.998,7.853 18,9.99 C18.006,14.4 14.422,17.994 10.01,18 L10.001,18 C5.594,18 2.006,14.418 2,10.01 C2,9.679 2.268,9.409 2.6,9.409 L2.6,9.409 Z M9.58020752,6.0545 C9.24820752,6.0545 8.98020752,6.3235 8.98020752,6.6545 L8.98020752,10.3345 C8.98020752,10.5485 9.09420752,10.7465 9.28020752,10.8535 L12.4672075,12.6935 C12.5612075,12.7485 12.6642075,12.7745 12.7662075,12.7745 C12.9742075,12.7745 13.1752075,12.6665 13.2862075,12.4735 C13.4522075,12.1875 13.3532075,11.8205 13.0662075,11.6545 L10.1802075,9.9885 L10.1802075,6.6545 C10.1802075,6.3235 9.91220752,6.0545 9.58020752,6.0545 L9.58020752,6.0545 Z"/>
</svg>

<svg xmlns="http://www.w3.org/2000/svg" viewBox="0 0 20 20">
    <path fill="#000" fill-rule="evenodd" d="M2.6 9.409a.6.6 0 0 1 .601.6A6.808 6.808 0 0 0 10 16.801h.009a6.81 6.81 0 0 0 4.794-11.616A6.758 6.758 0 0 0 10.001 3.2h-.009a6.73 6.73 0 0 0-5.164 2.403l2.268-.004h.001A.6.6 0 0 1 7.098 6.8l-3.45.004h-.001a.6.6 0 0 1-.6-.599l-.005-3.449a.6.6 0 0 1 1.201-.002l.002 1.691A7.919 7.919 0 0 1 9.99 2h.011c2.133 0 4.139.829 5.649 2.336A8.01 8.01 0 0 1 10.01 18h-.009A8.01 8.01 0 0 1 2 10.01a.6.6 0 0 1 .6-.601m6.98-3.355a.6.6 0 0 0-.6.6v3.68c0 .215.114.412.3.52l3.187 1.84a.598.598 0 0 0 .819-.22.6.6 0 0 0-.22-.82L10.18 9.99V6.654a.6.6 0 0 0-.6-.6"/>
</svg>
